SVG/DGB-alt.svg

<svg width="227px" height="227px" viewBox="0 0 227 227" version="1.1" xmlns="http://www.w3.org/2000/svg">
  <path d="M113.327,0 C50.739,0 0,50.739 0,113.327 C0,175.916 50.739,226.655 113.328,226.655 C175.917,226.655 226.656,175.917 226.656,113.327 C226.655,50.739 175.917,0 113.327,0 Z" id="Path" fill="#0066CC"></path>
  <path d="M113.329072,8 C55.1581512,8 8,55.1583593 8,113.329537 C8,171.501644 55.1581512,218.660004 113.330002,218.660004 C171.501852,218.660004 218.660004,171.502574 218.660004,113.329537 C218.659074,55.1583593 171.501852,8 113.329072,8 Z" id="Path" fill="#012351"></path>
  <path d="M174.351,106.188 C173.248,120.837 155.826,151.964 121.583,158.236 L118.285,188.858 L107.456,187.69 L110.485,159.56 C107.404,159.805 104.426,159.973 101.546,160.079 L98.737,186.147 L87.907,184.978 L90.583,160.173 C68.484,159.737 54.92,155.679 54.92,155.679 L89.7,89.946 L115.497,94.722 L88.17,148.801 C116.777,150.696 132.504,136.764 141.292,121.858 C150.079,106.949 141.679,91.666 129.829,89.182 C117.98,86.699 58.553,77.335 58.553,77.335 L73.265,60.709 C73.265,60.709 89.789,63.626 108.228,66.977 L111.06,40.695 L121.89,41.862 L118.971,68.944 C121.915,69.486 124.837,70.027 127.68,70.557 L130.607,43.407 L141.437,44.574 L138.416,72.616 C162.696,77.589 175.48,91.136 174.351,106.188 Z" id="Shape" fill="#FFFFFF" fill-rule="nonzero"></path>
</svg>

<svg xmlns="http://www.w3.org/2000/svg" width="226.777" height="226.777" viewBox="0 0 226.777 226.777"><path d="M113.327 0C50.739 0 0 50.739 0 113.327c0 62.589 50.739 113.328 113.328 113.328 62.589 0 113.328-50.738 113.328-113.328C226.655 50.739 175.917 0 113.327 0zm61.024 106.188c-1.103 14.649-18.525 45.776-52.768 52.048l-3.298 30.622-10.829-1.168 3.029-28.13c-3.081.245-6.059.413-8.939.519l-2.809 26.068-10.83-1.169 2.676-24.805c-22.099-.436-35.663-4.494-35.663-4.494L89.7 89.946l25.797 4.776-27.327 54.079c28.607 1.895 44.334-12.037 53.122-26.943 8.787-14.909.387-30.192-11.463-32.676-11.849-2.483-71.276-11.847-71.276-11.847l14.712-16.626s16.524 2.917 34.963 6.268l2.832-26.282 10.83 1.167-2.919 27.082c2.944.542 5.866 1.083 8.709 1.613l2.927-27.15 10.83 1.167-3.021 28.042c24.28 4.973 37.064 18.52 35.935 33.572z"/></svg>
